X: 9971
T: Devil's Churn, The
R: reel
M: 4/4
K: Eminor
B ~e3 edBe|dBAF DEF/G/A|B ~e3 edBe|dBAF GEED|
~E3 e- edBe|dBAF DEF/G/A|Bege fgeg|fgfd e2 z2:|
Bege fgfd|c2 gc aagc|d2 ad bbad|d2 ad ~f3B-|
Bege fgfd|c2 gc aagc|d2 ad bbad|fgfB e2 z2:|

